X: 1969
T: Wattle Jig
B: australian traditional tunes wiki
M:6/8
L:1/8
R: Jig
Q: 3/8=100
K:D
V:1 
|:"D"A2F DFA|dAd faa|fed AFF|AFF "A7"GFE|"D"A2F DFA|dAd faa|fed AFF|"A7"Adc "D"d3:|
|:"D"AAf AAf|Afa gfe|"A7"Ace Ace|Ace efe|"D"fef "A7"gfg|"D"afa "G"bag|"D"a/f/ed AFF|"A7"Adc "D"d3:|
% abcbook-tune_id 6342d5be1b9c88f62ab69413


% abcbook-boost 0
% abcbook-tablature 
% abcbook-transpose 
% abcbook-lastupdated 1665324491342
% abcbook-soundfonts 
% abcbook-repeats 1
% NFF Book 2015

